assets/images/icons/instagram-icon.svg

<svg width="34" height="34" viewBox="0 0 34 34" fill="none" xmlns="http://www.w3.org/2000/svg">
<path d="M17.1954 11.1974C14.1106 11.1974 11.5931 13.7149 11.5931 16.7997C11.5931 19.8845 14.1106 22.402 17.1954 22.402C20.2802 22.402 22.7977 19.8845 22.7977 16.7997C22.7977 13.7149 20.2802 11.1974 17.1954 11.1974ZM33.998 16.7997C33.998 14.4798 34.019 12.1809 33.8888 9.86513C33.7585 7.17536 33.1449 4.78819 31.178 2.8213C29.2069 0.850207 26.8239 0.240807 24.1341 0.110522C21.8142 -0.0197638 19.5153 0.00125009 17.1996 0.00125009C14.8797 0.00125009 12.5808 -0.0197638 10.265 0.110522C7.57527 0.240807 5.1881 0.85441 3.22121 2.8213C1.25011 4.7924 0.64071 7.17536 0.510424 9.86513C0.380139 12.1851 0.401152 14.484 0.401152 16.7997C0.401152 19.1154 0.380139 21.4185 0.510424 23.7342C0.64071 26.424 1.25431 28.8112 3.22121 30.7781C5.1923 32.7492 7.57527 33.3586 10.265 33.4888C12.585 33.6191 14.8839 33.5981 17.1996 33.5981C19.5195 33.5981 21.8184 33.6191 24.1341 33.4888C26.8239 33.3586 29.2111 32.745 31.178 30.7781C33.1491 28.807 33.7585 26.424 33.8888 23.7342C34.0232 21.4185 33.998 19.1196 33.998 16.7997ZM17.1954 25.4195C12.4253 25.4195 8.57552 21.5698 8.57552 16.7997C8.57552 12.0296 12.4253 8.17982 17.1954 8.17982C21.9655 8.17982 25.8152 12.0296 25.8152 16.7997C25.8152 21.5698 21.9655 25.4195 17.1954 25.4195ZM26.1683 9.83991C25.0546 9.83991 24.1552 8.94052 24.1552 7.82679C24.1552 6.71306 25.0546 5.81367 26.1683 5.81367C27.282 5.81367 28.1814 6.71306 28.1814 7.82679C28.1817 8.09125 28.1299 8.35318 28.0288 8.59757C27.9278 8.84196 27.7795 9.06402 27.5925 9.25102C27.4055 9.43802 27.1835 9.5863 26.9391 9.68735C26.6947 9.7884 26.4327 9.84024 26.1683 9.83991Z" fill="#333333"/>
</svg>

<svg width="34" height="34" fill="none" xmlns="http://www.w3.org/2000/svg"><path d="M17.195 11.197a5.614 5.614 0 0 0-5.602 5.603 5.614 5.614 0 0 0 5.602 5.602 5.614 5.614 0 0 0 5.603-5.602 5.614 5.614 0 0 0-5.603-5.603zM33.998 16.8c0-2.32.021-4.62-.11-6.935-.13-2.69-.743-5.077-2.71-7.044-1.971-1.97-4.354-2.58-7.044-2.71C21.814-.02 19.515 0 17.2 0c-2.32 0-4.62-.02-6.935.11-2.69.13-5.077.743-7.044 2.71C1.251 4.792.641 7.175.511 9.865.38 12.185.4 14.484.4 16.8c0 2.315-.02 4.619.11 6.934.13 2.69.743 5.077 2.71 7.044 1.971 1.971 4.354 2.58 7.044 2.71 2.32.131 4.619.11 6.935.11 2.32 0 4.618.021 6.934-.11 2.69-.13 5.077-.743 7.044-2.71 1.971-1.971 2.58-4.354 2.71-7.044.135-2.316.11-4.614.11-6.934zm-16.803 8.62c-4.77 0-8.62-3.85-8.62-8.62s3.85-8.62 8.62-8.62 8.62 3.85 8.62 8.62-3.85 8.62-8.62 8.62zm8.973-15.58a2.01 2.01 0 0 1-2.013-2.013c0-1.114.9-2.013 2.013-2.013a2.01 2.01 0 0 1 1.86 2.784 2.01 2.01 0 0 1-1.86 1.242z" fill="#333"/></svg>
